!!!!SEGMENT: pl-wumfc--r282--003-002_paderewski-ignacy-jan--exercises-3-exercise-2.krn
!!!cenid: 18xx:3197
!!!COM: Paderewski, Ignacy Jan
!!!COM-rismID: pe30029943
!!!CDT: 1860/11/18-1941/06/29
!!!CNT: Polish
!!!GTL: [Exercises 3]
!!!OTL: [Exercise] 2
!!!OMV: 002
!!!PDT:
!!!AGN:
!!!SMS-siglum: PL-Wumfc
!!!SMS-shelfmark: R282
!!!SMS-shelfwork: 003-002 G
!!!SMS-variant:
!!!SMS-altvar:
!!!NIFC-rismSourceID: 1001158933
!!!NIFC-islandoraID: pl-wumfc:419
!!!URL-pdf-islandora: https://repozytorium.nifc.pl/islandora/object/pl-wumfc%3A419/datastream/PDF/view
!!!URL-scan: https://polish.musicsources.pl/pl/lokalizacje/galeria/rekopisy/4702 @EN{Scan on Polish Music Sources Website} @PL{Skany w portalu Dziedzictwo Muzyki Polskiej w otwartym dostępie}
!!!ONB-nifc: UWAGA: druga grupa ćwiczeń od skanu 0011, prawa strona, 3 system. Nr 003 i 004 nienumerowane – skan 0012, lewa strona. Nr 010 nienumerowany – skan 0014, 3 pierwsze systemy
!!!AIN: 2 piano
!!!key: C
**kern	**kern
*part2	*part1
*group1	*group1
*staff2	*staff1
*I"[Pianoforte]	*I"[Pianoforte]
*I'	*I'
*Ipiano	*Ipiano
*ICklav	*ICklav
*clefF4	*clefG2
*k[]	*k[]
*C:	*C:
*M	*M
*	*Xtuplet
!!LO:TX:t=P:problem:brak kluczy na początku ćwiczenia
2c\	6e/
.	6f/
.	[>6g/
=1	=1
2B\	6g/]
.	6d/
.	[>6dd/
2A\	6dd/]
.	6cc/
.	[>6a/
=2	=2
2B\	6a/]
.	6g/
.	[>6dd/
2G\	6dd/]
.	6ee/
.	[>6dd/
=3	=3
2A\	6dd/]
.	6cc/
.	[>6a/
2B\	6a/]
.	6g/
.	6f/
=4	=4
2c;\	2e;/
2c\	6ee/
.	6dd/
.	[>6cc/
=5	=5
2c\	6cc/]
.	6ee/
.	[>6cc/
2G\	6cc/]
.	6b/
.	[>6dd/
=6	=6
2G\	6dd/]
.	6ee/
.	[>6b/
2E\	6b/]
.	6cc/
.	[>6g/
=7	=7
2G\	6g/]
.	6d/
.	[>6e/
2F\	6e/]
.	6d/
.	6a/
=8	=8
2E;\	2g;/
2E\	6cc/
.	6dd/
.	[>6ee/
!!linebreak:original
=9	=9
2A\	6ee/]
.	6cc/
.	[>6ee/
2A\	6ee/]
.	6ff/
.	[>6cc/
=10	=10
!	!LO:TX:t=P:problem:t. 10-12 – dopiski ołówkiem
2G\	6cc/]
.	6b/
.	[>6dd/
2B\	6dd/]
.	6g/
.	[>6gg/
=11	=11
2c\	6gg/]
.	6ee/
.	[>6gg/
2A\	6gg/]
.	6ff#X/
.	6ee 6cc/
=12	=12
!	!LO:N:vis=2.
2G;\	2gg;/
2c\	6cc/
.	6dd/
.	[>6ee/
=13	=13
2B\	6ee/]
.	6dd/
.	[>6gg/
2A\	6gg/]
.	6ff/
.	[>6cc/
=14	=14
2G\	6cc/]
.	6b/
.	[>6dd/
2E\	6dd/]
.	6cc/
.	[>6g/
=15	=15
2F\	6g/]
.	6f/
.	[>6a/
2D\	6a/]
.	6b/
.	6dd/
=16	=16
1C	1ee;<
==	==
*-	*-
!!!system-decoration: [(g1)]
!!!RDF**kern: > = above
!!!RDF**kern: < = below
!!!ENC: Katarzyna Serwa
!!!END: 2021-11-16
!!!ENC: Filip Voros
!!!END: 2021-11-13
!!!YEC: Copyright 2022 Narodowy Instytut Fryderyka Chopina (https://polishscores.org)
!!!YEM: Licence CC BY 4.0 (https://creativecommons.org/licenses/by/4.0)
